X:999
T:Wake Ev'ry Breath
C:W. Billings
L:1/2
M:3/2
Q:1/2=80
K:CMaj clef=treble-8
%%MIDI program 1 68 % Oboe
%%MIDI program 2 68 % Oboe
%%MIDI program 3 68 % Oboe
%%MIDI program 4 68 % Oboe
%%MIDI program 5 68 % Oboe
%%MIDI program 6 68 % Oboe
[V:1]
c|(e/>f/e)d|(c/>d/e)f|(g/>f/e)d|c2||\
c|c2G|(A/>B/c)A|(Gc)G|c2||\
g|g2g|(e/>d/c)c|(e/>f/g)g|g2||\
c|(e/>f/g)g|(ag)(3(B/c/d/)|(dc)(3(B/c/d/)|(e/>d/c)||\
e|(cG)G|(c/>d/e)c|(Bc)(3(d/c/B/)|(c/>d/e)||\
e|(g/f/e/d/c/)B/|(c/d/e/f/g/)f/|(e/g/c/e/)(3(d/c/B/)|c2|]
[V:2]
z|z3|z3|z3|z2|
c|(e/>f/e)d|(c/>d/e)f|(g/>f/e)d|c2||\
c|c2G|(A/>B/c)A|(Gc)G|c2||\
g|g2g|(e/>d/c)c|(e/>f/g)g|g2||\
c|(e/>f/g)g|(ag)(3(B/c/d/)|(dc)(3(B/c/d/)|(e/>d/c)||\
e|(cG)G|(c/>d/e)c|(Bc)(3(d/c/B/)|(c/>d/e)||\
e|(g/f/e/d/c/)B/|(c/d/e/f/g/)f/|(e/g/c/e/)(3(d/c/B/)|c2|]
[V:3]
z|z3|z3|z3|z2|
z|z3|z3|z3|z2|
c|(e/>f/e)d|(c/>d/e)f|(g/>f/e)d|c2||\
c|c2G|(A/>B/c)A|(Gc)G|c2||\
g|g2g|(e/>d/c)c|(e/>f/g)g|g2||\
c|(e/>f/g)g|(ag)(3(B/c/d/)|(dc)(3(B/c/d/)|(e/>d/c)||\
e|(cG)G|(c/>d/e)c|(Bc)(3(d/c/B/)|(c/>d/e)||\
e|(g/f/e/d/c/)B/|(c/d/e/f/g/)f/|(e/g/c/e/)(3(d/c/B/)|c2|]
[V:4]
z|z3|z3|z3|z2|
z|z3|z3|z3|z2|
z|z3|z3|z3|z2|
c|(e/>f/e)d|(c/>d/e)f|(g/>f/e)d|c2||\
c|c2G|(A/>B/c)A|(Gc)G|c2||\
g|g2g|(e/>d/c)c|(e/>f/g)g|g2||\
c|(e/>f/g)g|(ag)(3(B/c/d/)|(dc)(3(B/c/d/)|(e/>d/c)||\
e|(cG)G|(c/>d/e)c|(Bc)(3(d/c/B/)|(c/>d/e)||\
e|(g/f/e/d/c/)B/|(c/d/e/f/g/)f/|(e/g/c/e/)(3(d/c/B/)|c2|]
[V:5]
z|z3|z3|z3|z2|
z|z3|z3|z3|z2|
z|z3|z3|z3|z2|
z|z3|z3|z3|z2|
c|(e/>f/e)d|(c/>d/e)f|(g/>f/e)d|c2||\
c|c2G|(A/>B/c)A|(Gc)G|c2||\
g|g2g|(e/>d/c)c|(e/>f/g)g|g2||\
c|(e/>f/g)g|(ag)(3(B/c/d/)|(dc)(3(B/c/d/)|(e/>d/c)||\
e|(cG)G|(c/>d/e)c|(Bc)(3(d/c/B/)|(c/>d/e)||\
e|(g/f/e/d/c/)B/|(c/d/e/f/g/)f/|(e/g/c/e/)(3(d/c/B/)|c2|]
[V:6]
z|z3|z3|z3|z2|
z|z3|z3|z3|z2|
z|z3|z3|z3|z2|
z|z3|z3|z3|z2|
z|z3|z3|z3|z2|
c|(e/>f/e)d|(c/>d/e)f|(g/>f/e)d|c2||\
c|c2G|(A/>B/c)A|(Gc)G|c2||\
g|g2g|(e/>d/c)c|(e/>f/g)g|g2||\
c|(e/>f/g)g|(ag)(3(B/c/d/)|(dc)(3(B/c/d/)|(e/>d/c)||\
e|(cG)G|(c/>d/e)c|(Bc)(3(d/c/B/)|(c/>d/e)||\
e|(g/f/e/d/c/)B/|(c/d/e/f/g/)f/|(e/g/c/e/)(3(d/c/B/)|c2|]
